icons/money-euro-circle-fill.svg

<svg viewBox="0 0 24 24" fill="currentColor" xmlns="http://www.w3.org/2000/svg"><path d="M12.0049 22.0027C6.48204 22.0027 2.00488 17.5256 2.00488 12.0027C2.00488 6.4799 6.48204 2.00275 12.0049 2.00275C17.5277 2.00275 22.0049 6.4799 22.0049 12.0027C22.0049 17.5256 17.5277 22.0027 12.0049 22.0027ZM10.0549 11.0027C10.2865 9.86163 11.2954 9.00275 12.5049 9.00275C13.1201 9.00275 13.6834 9.22496 14.1189 9.59351L15.8198 8.45951C14.9973 7.56402 13.8166 7.00275 12.5049 7.00275C10.1886 7.00275 8.28107 8.75277 8.03235 11.0027H7.00488V13.0027H8.03235C8.28107 15.2527 10.1886 17.0027 12.5049 17.0027C13.8166 17.0027 14.9973 16.4415 15.8198 15.546L14.1188 14.412C13.6833 14.7806 13.1201 15.0027 12.5049 15.0027C11.2954 15.0027 10.2865 14.1439 10.0549 13.0027H15.0049V11.0027H10.0549Z"/></svg>

<svg xmlns="http://www.w3.org/2000/svg" viewBox="0 0 24 24">
    <g>
        <path fill="none" d="M0 0h24v24H0z"/>
        <path d="M12 22C6.477 22 2 17.523 2 12S6.477 2 12 2s10 4.477 10 10-4.477 10-10 10zm-1.95-11a2.5 2.5 0 0 1 4.064-1.41l1.701-1.133A4.5 4.5 0 0 0 8.028 11H7v2h1.027a4.5 4.5 0 0 0 7.788 2.543l-1.701-1.134A2.5 2.5 0 0 1 10.05 13l4.95.001v-2h-4.95z"/>
    </g>
</svg>
